X:1
T:Isaac Watts, 1719 (Psalm 130)   86. 86. (C. M.)
T:F# minor Oliver Holden, 1796
T:Philippi No copyright. Transcribed from The Union Harmony, 1796.
%%score [ 1 2 3 4 ]
L:1/8
M:4/4
K:A
V:1 treble nm="Treble" snm="Tr."
V:2 treble nm="Counter" snm="C."
V:3 treble-8 nm="Tenor" snm="T."
V:4 bass nm="Bass" snm="B."
V:1
 (A3 B) c2 c2 | c2 B2 A2 B2 | c6 c2 | c4 A4 | (A2 c4) A2 | F6 z2 | z8 | z4 z2 c2 | A2 B2 c2 B2 | %9
w: |||||||I|ssent my cries to|
 A2 G2 G2 F2 | A2 c2 f2 e2 | e2 e2 B2 B2 | (e2 f2 cBAG | A3) B c2 c2 | c8 |] %15
w: seek Thy grace, *||||||
V:2
 F4 F2 ^E2 | F2 E2 E2 D2 | C6 C2 | (C2 F2) (E2 D2) | C6 C2 | C6 z2 | z8 | z4 z2 F2 | C2 C2 C2 C2 | %9
w: 1.~Out of the|deeps of long dis-|tress, The|bor- * ders *|of des-|pair,||I|sent my cries to|
 F2 ^E2 E2 C2 | F2 F2 F2 C2 | E2 E2 E2 E2 | (A4 G2 F2 | E3) D CF ^E2 | F8 |] %15
w: seek Thy grace, I|sent my cries to|seek Thy grace, My|groans~ _ _|_ to move * Thine|ear.|
V:3
 (c3 B) A2 G2 | A2 B2 c2 BA | G6 G2 | A4 B4 | (c2 f2 ^e2) f2 | c6 z2 | z4 z2 c2 | A2 B2 c2 A2 | %8
w: ||||||I|sent my cries to|
 (F2 G2) (A2 B2) | c6 AB | c2 c2 A2 A2 | BA Bc d2 B2 | (c>B c>f ^edcB | c3) B A2 G2 | F8 |] %15
w: seek * Thy *|grace, * *||||||
V:4
 F,4 F,2 C,2 | F,2 G,2 A,2 G,F, | C,6 C,2 | F,4 E,4 | (A,2 B,2 C2) C,2 | F,6 F,2 | A,2 F,2 C2 A,2 | %7
w: |||||* I|sent my cries to|
 (F,2 G,2) (A,2 F,2) | C,8- | C,6 C,2 | F,2 F,2 F,2 C,2 | E,2 E,2 E,2 E,2 | (A,2 F,2 C,2 F,2 | %13
w: seek * Thy *|grace~|_ _||||
 A,3) B, C2 C,2 | F,8 |] %15
w: ||

